X:132
T:Jovial Fellow, The
M:C
L:1/8
B:Thompson's Compleat Collection of 200 Favourite Country Dances, vol. 3 (London, 1773)
Z:Transcribed and edited by Flynn Titford-Mock, 2007
Z:abc's:AK/Fiddler's Companion
K:C
G | cGEG F(B/c/d)F | E(A/B/c)E D[B,B][G.G]G | cGEG F(B/c/d)F | EcDB c3 :|
|: A | G/G/G BG dBfd | gedc BdBG | c/c/c ec ge c'a | gfed c3 :|

